resources/svg/solid/spray-can.svg

<svg xmlns="http://www.w3.org/2000/svg" fill="currentColor" stroke="none" viewBox="0 0 24 24"><path d="M13.003 3H15.003V5H13.003zM16 3H18V5H16zM16 6H18V8H16zM19 3H21V5H19zM19 6H21V8H19zM19 9H21V11H19zM4.012 12v9c0 .552.447 1 1 1H13c.553 0 1-.448 1-1v-9c0-2.209-1.791-4-4-4H8.012C5.803 8 4.012 9.791 4.012 12zM7.003 2H11.003V6H7.003z"/></svg>

<svg xmlns="http://www.w3.org/2000/svg" fill="currentColor" stroke="none" viewBox="0 0 24 24"><path d="M13.003 3h2v2h-2zM16 3h2v2h-2zm0 3h2v2h-2zm3-3h2v2h-2zm0 3h2v2h-2zm0 3h2v2h-2zM4.012 12v9a1 1 0 0 0 1 1H13a1 1 0 0 0 1-1v-9a4 4 0 0 0-4-4H8.012a4 4 0 0 0-4 4zM7.003 2h4v4h-4z"/></svg>
